images/3234014.svg

<?xml version="1.0" encoding="UTF-8"?>
<svg xmlns="http://www.w3.org/2000/svg" xmlns:xlink="http://www.w3.org/1999/xlink" width="300pt" height="300pt" viewBox="0 0 300 300" version="1.1">
<defs>
<g>
<symbol overflow="visible" id="glyph0-0">
<path style="stroke:none;" d="M 0.546875 1.9375 L 0.546875 -7.75 L 6.046875 -7.75 L 6.046875 1.9375 Z M 1.171875 1.328125 L 5.4375 1.328125 L 5.4375 -7.140625 L 1.171875 -7.140625 Z M 1.171875 1.328125 "/>
</symbol>
<symbol overflow="visible" id="glyph0-1">
<path style="stroke:none;" d="M 4.328125 -7.28125 C 3.546875 -7.28125 2.921875 -6.984375 2.453125 -6.390625 C 1.992188 -5.804688 1.765625 -5.007812 1.765625 -4 C 1.765625 -2.988281 1.992188 -2.1875 2.453125 -1.59375 C 2.921875 -1.007812 3.546875 -0.71875 4.328125 -0.71875 C 5.117188 -0.71875 5.742188 -1.007812 6.203125 -1.59375 C 6.660156 -2.1875 6.890625 -2.988281 6.890625 -4 C 6.890625 -5.007812 6.660156 -5.804688 6.203125 -6.390625 C 5.742188 -6.984375 5.117188 -7.28125 4.328125 -7.28125 Z M 4.328125 -8.171875 C 5.453125 -8.171875 6.351562 -7.789062 7.03125 -7.03125 C 7.707031 -6.28125 8.046875 -5.269531 8.046875 -4 C 8.046875 -2.738281 7.707031 -1.726562 7.03125 -0.96875 C 6.351562 -0.21875 5.453125 0.15625 4.328125 0.15625 C 3.203125 0.15625 2.300781 -0.21875 1.625 -0.96875 C 0.957031 -1.71875 0.625 -2.726562 0.625 -4 C 0.625 -5.269531 0.957031 -6.28125 1.625 -7.03125 C 2.300781 -7.789062 3.203125 -8.171875 4.328125 -8.171875 Z M 4.328125 -8.171875 "/>
</symbol>
<symbol overflow="visible" id="glyph0-2">
<path style="stroke:none;" d="M 1.078125 -8.015625 L 2.546875 -8.015625 L 6.09375 -1.3125 L 6.09375 -8.015625 L 7.15625 -8.015625 L 7.15625 0 L 5.6875 0 L 2.125 -6.703125 L 2.125 0 L 1.078125 0 Z M 1.078125 -8.015625 "/>
</symbol>
<symbol overflow="visible" id="glyph0-3">
<path style="stroke:none;" d="M 1.078125 -8.015625 L 5.6875 -8.015625 L 5.6875 -7.109375 L 2.171875 -7.109375 L 2.171875 -4.75 L 5.34375 -4.75 L 5.34375 -3.828125 L 2.171875 -3.828125 L 2.171875 0 L 1.078125 0 Z M 1.078125 -8.015625 "/>
</symbol>
</g>
</defs>
<g id="surface36985">
<rect x="0" y="0" width="300" height="300" style="fill:rgb(100%,100%,100%);fill-opacity:1;stroke:none;"/>
<path style="fill:none;stroke-width:1.2;stroke-linecap:butt;stroke-linejoin:miter;stroke:rgb(0%,0%,0%);stroke-opacity:1;stroke-miterlimit:10;" d="M 264.75 205.800781 L 258.828125 194.363281 "/>
<path style="fill:none;stroke-width:1.2;stroke-linecap:butt;stroke-linejoin:miter;stroke:rgb(100%,0%,0%);stroke-opacity:1;stroke-miterlimit:10;" d="M 258.828125 194.363281 L 252.90625 182.929688 "/>
<path style="fill:none;stroke-width:1.2;stroke-linecap:butt;stroke-linejoin:miter;stroke:rgb(100%,0%,0%);stroke-opacity:1;stroke-miterlimit:10;" d="M 252.90625 182.929688 L 240.042969 182.339844 "/>
<path style="fill:none;stroke-width:1.2;stroke-linecap:butt;stroke-linejoin:miter;stroke:rgb(0%,0%,0%);stroke-opacity:1;stroke-miterlimit:10;" d="M 240.042969 182.339844 L 227.179688 181.75 "/>
<path style=" stroke:none;fill-rule:nonzero;fill:rgb(100%,100%,100%);fill-opacity:1;" d="M 248.90625 176.429688 L 257.90625 176.429688 L 257.90625 189.429688 L 248.90625 189.429688 Z M 248.90625 176.429688 "/>
<g style="fill:rgb(100%,0%,0%);fill-opacity:1;">
  <use xlink:href="#glyph0-1" x="248.90625" y="186.331055"/>
</g>
<path style="fill:none;stroke-width:1.2;stroke-linecap:butt;stroke-linejoin:miter;stroke:rgb(0%,0%,0%);stroke-opacity:1;stroke-miterlimit:10;" d="M 227.179688 181.75 L 220.238281 192.597656 "/>
<path style="fill:none;stroke-width:1.2;stroke-linecap:butt;stroke-linejoin:miter;stroke:rgb(0%,0%,100%);stroke-opacity:1;stroke-miterlimit:10;" d="M 220.238281 192.597656 L 213.296875 203.441406 "/>
<path style="fill:none;stroke-width:1.2;stroke-linecap:butt;stroke-linejoin:miter;stroke:rgb(0%,0%,0%);stroke-opacity:1;stroke-miterlimit:10;" d="M 220.6875 180.652344 L 215.136719 189.328125 "/>
<path style="fill:none;stroke-width:1.2;stroke-linecap:butt;stroke-linejoin:miter;stroke:rgb(0%,0%,100%);stroke-opacity:1;stroke-miterlimit:10;" d="M 215.136719 189.328125 L 209.582031 198.003906 "/>
<path style="fill:none;stroke-width:1.2;stroke-linecap:butt;stroke-linejoin:miter;stroke:rgb(0%,0%,100%);stroke-opacity:1;stroke-miterlimit:10;" d="M 215.339844 158.882812 L 221.261719 170.316406 "/>
<path style="fill:none;stroke-width:1.2;stroke-linecap:butt;stroke-linejoin:miter;stroke:rgb(0%,0%,0%);stroke-opacity:1;stroke-miterlimit:10;" d="M 221.261719 170.316406 L 227.179688 181.75 "/>
<path style="fill:none;stroke-width:1.2;stroke-linecap:butt;stroke-linejoin:miter;stroke:rgb(0%,0%,100%);stroke-opacity:1;stroke-miterlimit:10;" d="M 213.296875 203.441406 L 200.433594 202.851562 "/>
<path style="fill:none;stroke-width:1.2;stroke-linecap:butt;stroke-linejoin:miter;stroke:rgb(0%,0%,0%);stroke-opacity:1;stroke-miterlimit:10;" d="M 200.433594 202.851562 L 187.570312 202.261719 "/>
<path style=" stroke:none;fill-rule:nonzero;fill:rgb(100%,100%,100%);fill-opacity:1;" d="M 209.296875 196.941406 L 217.296875 196.941406 L 217.296875 209.941406 L 209.296875 209.941406 Z M 209.296875 196.941406 "/>
<g style="fill:rgb(0%,0%,100%);fill-opacity:1;">
  <use xlink:href="#glyph0-2" x="209.296875" y="206.842773"/>
</g>
<path style="fill:none;stroke-width:1.2;stroke-linecap:butt;stroke-linejoin:miter;stroke:rgb(0%,0%,0%);stroke-opacity:1;stroke-miterlimit:10;" d="M 187.570312 202.261719 L 175.726562 179.390625 "/>
<path style="fill:none;stroke-width:1.2;stroke-linecap:butt;stroke-linejoin:miter;stroke:rgb(0%,0%,0%);stroke-opacity:1;stroke-miterlimit:10;" d="M 191.765625 197.1875 L 182.292969 178.894531 "/>
<path style="fill:none;stroke-width:1.2;stroke-linecap:butt;stroke-linejoin:miter;stroke:rgb(0%,0%,0%);stroke-opacity:1;stroke-miterlimit:10;" d="M 175.726562 179.390625 L 189.613281 157.703125 "/>
<path style="fill:none;stroke-width:1.2;stroke-linecap:butt;stroke-linejoin:miter;stroke:rgb(0%,0%,100%);stroke-opacity:1;stroke-miterlimit:10;" d="M 150 178.210938 L 162.863281 178.800781 "/>
<path style="fill:none;stroke-width:1.2;stroke-linecap:butt;stroke-linejoin:miter;stroke:rgb(0%,0%,0%);stroke-opacity:1;stroke-miterlimit:10;" d="M 162.863281 178.800781 L 175.726562 179.390625 "/>
<path style="fill:none;stroke-width:1.2;stroke-linecap:butt;stroke-linejoin:miter;stroke:rgb(0%,0%,0%);stroke-opacity:1;stroke-miterlimit:10;" d="M 189.613281 157.703125 L 202.476562 158.292969 "/>
<path style="fill:none;stroke-width:1.2;stroke-linecap:butt;stroke-linejoin:miter;stroke:rgb(0%,0%,100%);stroke-opacity:1;stroke-miterlimit:10;" d="M 202.476562 158.292969 L 215.339844 158.882812 "/>
<path style="fill:none;stroke-width:1.2;stroke-linecap:butt;stroke-linejoin:miter;stroke:rgb(0%,0%,0%);stroke-opacity:1;stroke-miterlimit:10;" d="M 191.90625 163.871094 L 202.199219 164.34375 "/>
<path style="fill:none;stroke-width:1.2;stroke-linecap:butt;stroke-linejoin:miter;stroke:rgb(0%,0%,100%);stroke-opacity:1;stroke-miterlimit:10;" d="M 202.199219 164.34375 L 212.488281 164.816406 "/>
<path style="fill:none;stroke-width:1.2;stroke-linecap:butt;stroke-linejoin:miter;stroke:rgb(0%,0%,0%);stroke-opacity:1;stroke-miterlimit:10;" d="M 189.613281 157.703125 L 183.691406 146.265625 "/>
<path style="fill:none;stroke-width:1.2;stroke-linecap:butt;stroke-linejoin:miter;stroke:rgb(0%,0%,100%);stroke-opacity:1;stroke-miterlimit:10;" d="M 183.691406 146.265625 L 177.769531 134.832031 "/>
<path style=" stroke:none;fill-rule:nonzero;fill:rgb(100%,100%,100%);fill-opacity:1;" d="M 211.339844 152.382812 L 219.339844 152.382812 L 219.339844 165.382812 L 211.339844 165.382812 Z M 211.339844 152.382812 "/>
<g style="fill:rgb(0%,0%,100%);fill-opacity:1;">
  <use xlink:href="#glyph0-2" x="211.339844" y="162.28418"/>
</g>
<path style="fill:none;stroke-width:1.2;stroke-linecap:butt;stroke-linejoin:miter;stroke:rgb(0%,0%,100%);stroke-opacity:1;stroke-miterlimit:10;" d="M 177.769531 134.832031 L 164.90625 134.242188 "/>
<path style="fill:none;stroke-width:1.2;stroke-linecap:butt;stroke-linejoin:miter;stroke:rgb(0%,0%,0%);stroke-opacity:1;stroke-miterlimit:10;" d="M 164.90625 134.242188 L 152.042969 133.652344 "/>
<path style="fill:none;stroke-width:1.2;stroke-linecap:butt;stroke-linejoin:miter;stroke:rgb(0%,0%,100%);stroke-opacity:1;stroke-miterlimit:10;" d="M 177.769531 134.832031 L 184.710938 123.988281 "/>
<path style="fill:none;stroke-width:1.2;stroke-linecap:butt;stroke-linejoin:miter;stroke:rgb(0%,0%,0%);stroke-opacity:1;stroke-miterlimit:10;" d="M 184.710938 123.988281 L 191.65625 113.140625 "/>
<path style=" stroke:none;fill-rule:nonzero;fill:rgb(100%,100%,100%);fill-opacity:1;" d="M 173.769531 128.332031 L 181.769531 128.332031 L 181.769531 141.332031 L 173.769531 141.332031 Z M 173.769531 128.332031 "/>
<g style="fill:rgb(0%,0%,100%);fill-opacity:1;">
  <use xlink:href="#glyph0-2" x="173.769531" y="138.233398"/>
</g>
<path style="fill:none;stroke-width:1.2;stroke-linecap:butt;stroke-linejoin:miter;stroke:rgb(0%,0%,0%);stroke-opacity:1;stroke-miterlimit:10;" d="M 154.734375 132.257812 L 148.8125 120.824219 "/>
<path style="fill:none;stroke-width:1.2;stroke-linecap:butt;stroke-linejoin:miter;stroke:rgb(100%,0%,0%);stroke-opacity:1;stroke-miterlimit:10;" d="M 148.8125 120.824219 L 142.890625 109.390625 "/>
<path style="fill:none;stroke-width:1.2;stroke-linecap:butt;stroke-linejoin:miter;stroke:rgb(0%,0%,0%);stroke-opacity:1;stroke-miterlimit:10;" d="M 149.351562 135.046875 L 143.429688 123.609375 "/>
<path style="fill:none;stroke-width:1.2;stroke-linecap:butt;stroke-linejoin:miter;stroke:rgb(100%,0%,0%);stroke-opacity:1;stroke-miterlimit:10;" d="M 143.429688 123.609375 L 137.511719 112.175781 "/>
<path style="fill:none;stroke-width:1.2;stroke-linecap:butt;stroke-linejoin:miter;stroke:rgb(0%,0%,0%);stroke-opacity:1;stroke-miterlimit:10;" d="M 152.042969 133.652344 L 138.15625 155.34375 "/>
<path style=" stroke:none;fill-rule:nonzero;fill:rgb(100%,100%,100%);fill-opacity:1;" d="M 131.199219 104.28125 L 140.199219 104.28125 L 140.199219 117.28125 L 131.199219 117.28125 Z M 131.199219 104.28125 "/>
<g style="fill:rgb(100%,0%,0%);fill-opacity:1;">
  <use xlink:href="#glyph0-1" x="131.199219" y="114.182617"/>
</g>
<path style="fill:none;stroke-width:1.2;stroke-linecap:butt;stroke-linejoin:miter;stroke:rgb(0%,0%,0%);stroke-opacity:1;stroke-miterlimit:10;" d="M 138.15625 155.34375 L 144.078125 166.777344 "/>
<path style="fill:none;stroke-width:1.2;stroke-linecap:butt;stroke-linejoin:miter;stroke:rgb(0%,0%,100%);stroke-opacity:1;stroke-miterlimit:10;" d="M 144.078125 166.777344 L 150 178.210938 "/>
<path style="fill:none;stroke-width:1.2;stroke-linecap:butt;stroke-linejoin:miter;stroke:rgb(0%,0%,0%);stroke-opacity:1;stroke-miterlimit:10;" d="M 144.722656 154.84375 L 149.460938 163.992188 "/>
<path style="fill:none;stroke-width:1.2;stroke-linecap:butt;stroke-linejoin:miter;stroke:rgb(0%,0%,100%);stroke-opacity:1;stroke-miterlimit:10;" d="M 149.460938 163.992188 L 154.195312 173.140625 "/>
<path style="fill:none;stroke-width:1.2;stroke-linecap:butt;stroke-linejoin:miter;stroke:rgb(0%,0%,0%);stroke-opacity:1;stroke-miterlimit:10;" d="M 138.15625 155.34375 L 112.429688 154.164062 "/>
<path style=" stroke:none;fill-rule:nonzero;fill:rgb(100%,100%,100%);fill-opacity:1;" d="M 146 171.710938 L 154 171.710938 L 154 184.710938 L 146 184.710938 Z M 146 171.710938 "/>
<g style="fill:rgb(0%,0%,100%);fill-opacity:1;">
  <use xlink:href="#glyph0-2" x="146" y="181.612305"/>
</g>
<path style="fill:none;stroke-width:1.2;stroke-linecap:butt;stroke-linejoin:miter;stroke:rgb(0%,0%,0%);stroke-opacity:1;stroke-miterlimit:10;" d="M 112.429688 154.164062 L 100.589844 131.292969 "/>
<path style="fill:none;stroke-width:1.2;stroke-linecap:butt;stroke-linejoin:miter;stroke:rgb(0%,0%,0%);stroke-opacity:1;stroke-miterlimit:10;" d="M 105.867188 154.664062 L 96.390625 136.367188 "/>
<path style="fill:none;stroke-width:1.2;stroke-linecap:butt;stroke-linejoin:miter;stroke:rgb(0%,0%,0%);stroke-opacity:1;stroke-miterlimit:10;" d="M 98.546875 175.855469 L 112.429688 154.164062 "/>
<path style="fill:none;stroke-width:1.2;stroke-linecap:butt;stroke-linejoin:miter;stroke:rgb(0%,0%,0%);stroke-opacity:1;stroke-miterlimit:10;" d="M 100.589844 131.292969 L 74.863281 130.113281 "/>
<path style="fill:none;stroke-width:1.2;stroke-linecap:butt;stroke-linejoin:miter;stroke:rgb(0%,0%,0%);stroke-opacity:1;stroke-miterlimit:10;" d="M 74.863281 130.113281 L 60.976562 151.804688 "/>
<path style="fill:none;stroke-width:1.2;stroke-linecap:butt;stroke-linejoin:miter;stroke:rgb(0%,0%,0%);stroke-opacity:1;stroke-miterlimit:10;" d="M 78.578125 135.550781 L 67.46875 152.902344 "/>
<path style="fill:none;stroke-width:1.2;stroke-linecap:butt;stroke-linejoin:miter;stroke:rgb(0%,0%,0%);stroke-opacity:1;stroke-miterlimit:10;" d="M 60.976562 151.804688 L 72.820312 174.675781 "/>
<path style="fill:none;stroke-width:1.2;stroke-linecap:butt;stroke-linejoin:miter;stroke:rgb(0%,0%,0%);stroke-opacity:1;stroke-miterlimit:10;" d="M 60.976562 151.804688 L 48.113281 151.214844 "/>
<path style="fill:none;stroke-width:1.2;stroke-linecap:butt;stroke-linejoin:miter;stroke:rgb(20%,80%,80%);stroke-opacity:1;stroke-miterlimit:10;" d="M 48.113281 151.214844 L 35.25 150.625 "/>
<path style="fill:none;stroke-width:1.2;stroke-linecap:butt;stroke-linejoin:miter;stroke:rgb(0%,0%,0%);stroke-opacity:1;stroke-miterlimit:10;" d="M 72.820312 174.675781 L 98.546875 175.855469 "/>
<path style="fill:none;stroke-width:1.2;stroke-linecap:butt;stroke-linejoin:miter;stroke:rgb(0%,0%,0%);stroke-opacity:1;stroke-miterlimit:10;" d="M 75.667969 168.738281 L 96.25 169.683594 "/>
<path style=" stroke:none;fill-rule:nonzero;fill:rgb(100%,100%,100%);fill-opacity:1;" d="M 28.25 144.125 L 35.25 144.125 L 35.25 157.125 L 28.25 157.125 Z M 28.25 144.125 "/>
<g style="fill:rgb(20%,80%,80%);fill-opacity:1;">
  <use xlink:href="#glyph0-3" x="28.25" y="154.026367"/>
</g>
<path style=" stroke:none;fill-rule:nonzero;fill:rgb(0%,0%,0%);fill-opacity:1;" d="M 217.382812 114.320312 L 191.863281 108.601562 L 191.445312 117.679688 Z M 217.382812 114.320312 "/>
<path style="fill:none;stroke-width:1.2;stroke-linecap:butt;stroke-linejoin:miter;stroke:rgb(0%,0%,0%);stroke-opacity:1;stroke-miterlimit:10;" d="M 217.382812 114.320312 L 233.457031 94.199219 "/>
<path style="fill:none;stroke-width:1.2;stroke-linecap:butt;stroke-linejoin:miter;stroke:rgb(100%,0%,0%);stroke-opacity:1;stroke-miterlimit:10;" d="M 231.550781 135.828125 L 224.464844 125.074219 "/>
<path style="fill:none;stroke-width:1.2;stroke-linecap:butt;stroke-linejoin:miter;stroke:rgb(0%,0%,0%);stroke-opacity:1;stroke-miterlimit:10;" d="M 224.464844 125.074219 L 217.382812 114.320312 "/>
<path style="fill:none;stroke-width:1.2;stroke-linecap:butt;stroke-linejoin:miter;stroke:rgb(0%,0%,0%);stroke-opacity:1;stroke-miterlimit:10;" d="M 233.457031 94.199219 L 257.5625 103.273438 "/>
<path style="fill:none;stroke-width:1.2;stroke-linecap:butt;stroke-linejoin:miter;stroke:rgb(0%,0%,0%);stroke-opacity:1;stroke-miterlimit:10;" d="M 257.5625 103.273438 L 256.382812 129 "/>
<path style="fill:none;stroke-width:1.2;stroke-linecap:butt;stroke-linejoin:miter;stroke:rgb(0%,0%,0%);stroke-opacity:1;stroke-miterlimit:10;" d="M 256.382812 129 L 243.964844 132.414062 "/>
<path style="fill:none;stroke-width:1.2;stroke-linecap:butt;stroke-linejoin:miter;stroke:rgb(100%,0%,0%);stroke-opacity:1;stroke-miterlimit:10;" d="M 243.964844 132.414062 L 231.550781 135.828125 "/>
<path style=" stroke:none;fill-rule:nonzero;fill:rgb(100%,100%,100%);fill-opacity:1;" d="M 227.550781 129.328125 L 236.550781 129.328125 L 236.550781 142.328125 L 227.550781 142.328125 Z M 227.550781 129.328125 "/>
<g style="fill:rgb(100%,0%,0%);fill-opacity:1;">
  <use xlink:href="#glyph0-1" x="227.550781" y="139.229492"/>
</g>
</g>
</svg>

<svg xmlns="http://www.w3.org/2000/svg" xmlns:xlink="http://www.w3.org/1999/xlink" width="300pt" height="300pt" viewBox="0 0 300 300"><defs><symbol overflow="visible"><path d="M.547 1.938V-7.75h5.5v9.688zm.625-.61h4.266v-8.47H1.171zm0 0"/></symbol><symbol overflow="visible" id="a"><path d="M4.328-7.28c-.78 0-1.406.296-1.875.89-.46.585-.687 1.382-.687 2.39 0 1.012.226 1.813.687 2.406.47.586 1.094.875 1.875.875.79 0 1.414-.288 1.875-.874.457-.593.688-1.394.688-2.406 0-1.008-.23-1.805-.687-2.39-.46-.594-1.086-.89-1.875-.89zm0-.892c1.125 0 2.024.383 2.703 1.14C7.708-6.28 8.048-5.27 8.048-4c0 1.262-.34 2.273-1.016 3.03C6.353-.22 5.454.157 4.33.157S2.3-.22 1.625-.97c-.668-.75-1-1.757-1-3.03 0-1.27.332-2.28 1-3.03.676-.76 1.578-1.142 2.703-1.142zm0 0"/></symbol><symbol overflow="visible" id="b"><path d="M1.078-8.016h1.47l3.546 6.704v-6.704h1.062V0H5.688L2.124-6.703V0H1.078zm0 0"/></symbol><symbol overflow="visible" id="c"><path d="M1.078-8.016h4.61v.907H2.171v2.36h3.172v.922H2.172V0H1.078zm0 0"/></symbol></defs><g><path fill="#fff" d="M0 0h300v300H0z"/><path d="M264.75 205.8l-5.922-11.437" stroke-width="1.2" stroke="#000" stroke-miterlimit="10" fill="none"/><path d="M258.828 194.363l-5.922-11.433M252.906 182.93l-12.863-.59" stroke-width="1.2" stroke="#f00" stroke-miterlimit="10" fill="none"/><path d="M240.043 182.34l-12.863-.59" stroke-width="1.2" stroke="#000" stroke-miterlimit="10" fill="none"/><path d="M248.906 176.43h9v13h-9zm0 0" fill="#fff"/><use xlink:href="#a" x="248.906" y="186.331" fill="#f00"/><path d="M227.18 181.75l-6.942 10.848" stroke-width="1.2" stroke="#000" stroke-miterlimit="10" fill="none"/><path d="M220.238 192.598l-6.94 10.843" stroke-width="1.2" stroke="#00f" stroke-miterlimit="10" fill="none"/><path d="M220.688 180.652l-5.55 8.676" stroke-width="1.2" stroke="#000" stroke-miterlimit="10" fill="none"/><path d="M215.137 189.328l-5.555 8.676M215.34 158.883l5.922 11.433" stroke-width="1.2" stroke="#00f" stroke-miterlimit="10" fill="none"/><path d="M221.262 170.316l5.918 11.434" stroke-width="1.2" stroke="#000" stroke-miterlimit="10" fill="none"/><path d="M213.297 203.44l-12.863-.588" stroke-width="1.2" stroke="#00f" stroke-miterlimit="10" fill="none"/><path d="M200.434 202.852l-12.864-.59" stroke-width="1.2" stroke="#000" stroke-miterlimit="10" fill="none"/><path d="M209.297 196.94h8v13h-8zm0 0" fill="#fff"/><use xlink:href="#b" x="209.297" y="206.843" fill="#00f"/><path d="M187.57 202.262l-11.843-22.87M191.766 197.188l-9.473-18.293M175.727 179.39l13.886-21.687" stroke-width="1.2" stroke="#000" stroke-miterlimit="10" fill="none"/><path d="M150 178.21l12.863.59" stroke-width="1.2" stroke="#00f" stroke-miterlimit="10" fill="none"/><path d="M162.863 178.8l12.864.59M189.613 157.703l12.864.59" stroke-width="1.2" stroke="#000" stroke-miterlimit="10" fill="none"/><path d="M202.477 158.293l12.863.59" stroke-width="1.2" stroke="#00f" stroke-miterlimit="10" fill="none"/><path d="M191.906 163.87l10.293.474" stroke-width="1.2" stroke="#000" stroke-miterlimit="10" fill="none"/><path d="M202.2 164.344l10.288.472" stroke-width="1.2" stroke="#00f" stroke-miterlimit="10" fill="none"/><path d="M189.613 157.703l-5.922-11.437" stroke-width="1.2" stroke="#000" stroke-miterlimit="10" fill="none"/><path d="M183.69 146.266l-5.92-11.434" stroke-width="1.2" stroke="#00f" stroke-miterlimit="10" fill="none"/><path d="M211.34 152.383h8v13h-8zm0 0" fill="#fff"/><use xlink:href="#b" x="211.34" y="162.284" fill="#00f"/><path d="M177.77 134.832l-12.864-.59" stroke-width="1.2" stroke="#00f" stroke-miterlimit="10" fill="none"/><path d="M164.906 134.242l-12.863-.59" stroke-width="1.2" stroke="#000" stroke-miterlimit="10" fill="none"/><path d="M177.77 134.832l6.94-10.844" stroke-width="1.2" stroke="#00f" stroke-miterlimit="10" fill="none"/><path d="M184.71 123.988l6.946-10.847" stroke-width="1.2" stroke="#000" stroke-miterlimit="10" fill="none"/><path d="M173.77 128.332h8v13h-8zm0 0" fill="#fff"/><use xlink:href="#b" x="173.77" y="138.233" fill="#00f"/><path d="M154.734 132.258l-5.922-11.434" stroke-width="1.2" stroke="#000" stroke-miterlimit="10" fill="none"/><path d="M148.813 120.824l-5.922-11.433" stroke-width="1.2" stroke="#f00" stroke-miterlimit="10" fill="none"/><path d="M149.352 135.047l-5.922-11.438" stroke-width="1.2" stroke="#000" stroke-miterlimit="10" fill="none"/><path d="M143.43 123.61l-5.918-11.434" stroke-width="1.2" stroke="#f00" stroke-miterlimit="10" fill="none"/><path d="M152.043 133.652l-13.887 21.692" stroke-width="1.2" stroke="#000" stroke-miterlimit="10" fill="none"/><path d="M131.2 104.28h9v13h-9zm0 0" fill="#fff"/><use xlink:href="#a" x="131.199" y="114.183" fill="#f00"/><path d="M138.156 155.344l5.922 11.433" stroke-width="1.2" stroke="#000" stroke-miterlimit="10" fill="none"/><path d="M144.078 166.777L150 178.21" stroke-width="1.2" stroke="#00f" stroke-miterlimit="10" fill="none"/><path d="M144.723 154.844l4.738 9.148" stroke-width="1.2" stroke="#000" stroke-miterlimit="10" fill="none"/><path d="M149.46 163.992l4.735 9.15" stroke-width="1.2" stroke="#00f" stroke-miterlimit="10" fill="none"/><path d="M138.156 155.344l-25.726-1.18" stroke-width="1.2" stroke="#000" stroke-miterlimit="10" fill="none"/><path d="M146 171.71h8v13h-8zm0 0" fill="#fff"/><use xlink:href="#b" x="146" y="181.612" fill="#00f"/><path d="M112.43 154.164l-11.84-22.87M105.867 154.664l-9.476-18.297M98.547 175.855l13.883-21.69M100.59 131.293l-25.727-1.18M74.863 130.113l-13.886 21.692M78.578 135.55l-11.11 17.352M60.977 151.805l11.843 22.87M60.977 151.805l-12.864-.59" stroke-width="1.2" stroke="#000" stroke-miterlimit="10" fill="none"/><path d="M48.113 151.215l-12.863-.59" stroke-width="1.2" stroke="#3cc" stroke-miterlimit="10" fill="none"/><path d="M72.82 174.676l25.727 1.18M75.668 168.738l20.582.946" stroke-width="1.2" stroke="#000" stroke-miterlimit="10" fill="none"/><path d="M28.25 144.125h7v13h-7zm0 0" fill="#fff"/><use xlink:href="#c" x="28.25" y="154.026" fill="#3cc"/><path d="M217.383 114.32l-25.52-5.718-.418 9.078zm0 0"/><path d="M217.383 114.32l16.074-20.12" stroke-width="1.2" stroke="#000" stroke-miterlimit="10" fill="none"/><path d="M231.55 135.828l-7.085-10.754" stroke-width="1.2" stroke="#f00" stroke-miterlimit="10" fill="none"/><path d="M224.465 125.074l-7.082-10.754M233.457 94.2l24.106 9.073M257.563 103.273L256.382 129M256.383 129l-12.418 3.414" stroke-width="1.2" stroke="#000" stroke-miterlimit="10" fill="none"/><path d="M243.965 132.414l-12.414 3.414" stroke-width="1.2" stroke="#f00" stroke-miterlimit="10" fill="none"/><path d="M227.55 129.328h9v13h-9zm0 0" fill="#fff"/><use xlink:href="#a" x="227.551" y="139.229" fill="#f00"/></g></svg>
